X: 1417
T: The Old Maids Of Galway
M:C|
L:1/8
N:"collected by F. O'Neill"
B:O'Neill's 1417
Z:"Transcribed by Bob Safranek, rjs@gsp.org"
K:G
e>B ((3{c}BAB) e2 dB | A2 GA   dBgf | ((3efg) df e2 dB | A2 GA (BG) G2 :|
g2  (fg)       efde  | g2 (bg) eaaf | g2      fg efdB  | A2 GA  BG  G2 |
g2   fg        efde  | g2  bg  eaaa | bgaf       gedB  | A2 GA  BG  G2 |]


